**kern	**kern
*staff2	*staff1
=1-	=1-
*clefF4	*clefG2
*k[f#c#g#d#]	*k[f#c#g#d#]
*E:	*E:
*M6/8	*M6/8
8E\L	8r
8B\	8r
8c#\J	2r
8E\L	.
8B\	.
8c#\J	.
=2	=2
8E\L	4ee\
8B\	.
8c#\J	8r
8E\L	4ffn\
8B\	.
8c#\J	8r
=3	=3
8E\L	8ggn\L
8B\	8ffn\
8c#\J	8ee\J
8E\L	8dd#\L
8B\	8ee\
8c#\J	8b\J
=4	=4
8D#\L	4ddn\
8A#\	.
8B\J	8dd\
8D#\L	4dd\
8A#\	.
8B\J	8ccn\
=5	=5
8E\L	8b/L
8B\	8a/
8c#\J	8g#/J
8E\L	8f#/L
8B\	8e/
8c#\J	8d#/J
=6	=6
!!linebreak:original
8F#\L	4dn/
8B\	.
8cn\J	8b\ 8ddn\
8F#\L	4b\ 4dd\
8B\	.
8c\J	8d/
=7	=7
8E\L	8c#/L
8A\	8d#/
8B\J	8e/J
8D#\L	8f#/L
8A\	8g#/
8B\J	8a/J
=8	=8
8C#\L	8b\L
8A\	8cc#\
8B\J	8dd#\J
4BB/	8ee\L
.	8ff#\
8r	8gg#\J
=9	=9
8EE/L	4aa\
8BB/	.
8C#/J	8aa\
8D#\L	4aa\
8E\	.
8F#\J	8aa\
=10	=10
8G#\L	8ff#\L
8A\	8bb\
8B\J	8ee\J
8c#\L	8aa\L
8d#\	8dd#\
8e\J	8gg#\J
=11	=11
4.f#\	8ff#\L
.	8aa\
.	8ccc#\J
4.fn\ 4.gn\	4fff#\
.	8bb\
=12	=12
!!linebreak:original
4.e\ 4.g#\	8fffn\L
.	8eee\
.	8bb\J
8f#\L	4ee\
8g#\	.
8f#\J	8b\
=13	=13
8e\L	4ee\
8d#\	.
8e\J	8bb\
8d#\L	4gg#\
8e\	.
8d#\J	8b\
=14	=14
8e\L	4ee\
8d#\	.
8e\J	8eee\
8d#\L	4cccn\
8e\	.
8d#\J	8ccn\
=15	=15
4.e\	8ffn\L
.	8aa\
.	8cccn\J
4.d#\ 4.e\	8fffn\L
.	8eee\
.	8eee-\J
=16	=16
4.dn\ 4.fn\	8dddn\L
.	8aa\
.	8ffn\J
8cn\L	8ddn\L
8B\	8ee\
8A\J	8ff\J
=17	=17
!!linebreak:original
8Gn\L	4ggn\
8cn\	.
8e\J	8gg\
8G\L	4aa\
8c\	.
8e\J	8aa\
=18	=18
8Fn\L	4bb\
8cn\	.
8e\J	8bb\
8F\L	4cccn\
8B\	.
8dn\J	8ccc\
=19	=19
4.E\ 4.A\ 4.cn\	8r
.	8ddd#\L
.	8eee\J
4.Dn\ 4.Gn\ 4.B\	8fffn\L
.	8gggn\
.	8aaa\J
=20	=20
4Cn\ 4Fn\ 4A\	8bbb-\L
.	8fffn\
8FFn/	8dddn\J
8BB-/L	4bb-\
8C/	.
8BBn/J	8B/
=21	=21
8EE/L	8e/L
8BB/	8b/
8C#/J	8f#/J
8EE/L	8b\L
8BB/	8g#\
8C#/J	8b\J
=22	=22
!!linebreak:original
8EE/L	8a\L
8BB/	8cc#\
8C#/J	8b\J
8EE/L	8dd#\L
8BB/	8cc#\
8C#/J	8ee\J
=23	=23
8D#\L	8dd#\L
8E\	8ff#\
8F#\J	8ee\J
8G#\L	8gg#\L
8A\	8ff#\
8B\J	8aa\J
=24	=24
8c#\L	8gg#\L
8d#\	8bb\
8e\J	8aa\J
8f#\L	8ccc#\L
8g#\	8bb\
8a\J	8ddd#\J
=25	=25
8a#\L	4eeee\
8b\	.
8ccn\J	8eeee\
8ddn\L	4eeee\
8ee\	.
8ffn\J	8eeee\
=26	=26
4ggn\	8eeee-\L
.	8ddddn\
8aa\	8bbb-\J
4dddn\	8dddd-\L
.	8ccccn\
8ccn\	8aaa-\J
=27	=27
!!pagebreak:original
4ffn\	8ggg-\L
.	8fffn\
8dn\	8eee-\J
4a-\	8gggn\L
.	8fff\
8ccn\	8dddn\J
=28	=28
8b-\L	4bbb\ 4ccccn\
8a\	.
8gn\J	8cccn\
8fn\L	4cccc\ 4ddddn\
8e\	.
8d#\J	8dddd#\
=29	=29
8cn\L	4bbb\ 4ccccn\
8B\	.
8A\J	8cccn\
8Gn\L	4cccc\ 4ddddn\
8Fn\	.
8E-\J	8dddn\
=30	=30
8Dn/L	4ccccn\ 4eeee-\
8Cn/	.
8BB/J	8eee-\
8AA/L	4eeeen\ 4ffffn\
8GG#/	.
8FFn/J	8fffn\
=31	=31
!!linebreak:original
8EE/L	4gggn\ 4ggggn\
8DD#/	.
8CCn/J	8ggg\ 8gggg\
8BBB/L	4ggg\ 4gggg\
8AAA/	.
8GGGn/J	8fff#\ 8ffff#\
=32	=32
8FFF#/L	4gggn\ 4ggggn\
8FF#/	.
8Cn/J	8ggg\ 8gggg\
8E\L	4ggg\ 4gggg\
8Gn\	.
8cn\J	8fff#\ 8ffff#\
=33	=33
8Dn\L	8ffffn\L
8Fn\	8ddddn\
8A\J	8bbb\J
8dn\L	8eeee\L
8e\	8ccccn\
8fn\J	8aaa\J
=34	=34
8gn\L	8fff#\L
8a\	8aaa\
8b\J	8bbb\J
8ccn\L	8ccccn\L
8ddn\	8ddddn\
8ee\J	8eeee\J
=35	=35
4ffn\	4fffn\ 4ffffn\
8r	8fff\ 8ffff\
4DD#/	4fff\ 4ffff\
8r	8eee\ 8eeee\
=36	=36
!!linebreak:original
8E\L	4ffn\ 4fffn\
8B\	.
8c#\J	8ff\ 8fff\
8E\L	4ff\ 4fff\
8B\	.
8c#\J	8ee\ 8eee\
=37	=37
8D#\L	4ffn\
8A\	.
8B\J	8ff\
8E\L	4ff\
8B\	.
8c#\J	8ee\
=38	=38
8Dn\L	4fn/
8A\	.
8B\J	8f/
8D\L	4f/
8A\	.
8B\J	8e/
=39	=39
8Cn\L	8r
8Gn\	8dn/L
8A\J	8gn/J
8C\L	8e/L
8G\	8a/
8A\J	8fn/J
=40	=40
8BB\L	8b-\L
8Fn\	8fn\
8Gn\J	8b-\J
8BB\L	8ee-\L
8F\	8b-\
8G\J	8ee-\J
=41	=41
!!linebreak:original
4AA/ 4E/ 4F#/	8ffn\L
.	8ggn\
8r	8aa\J
4EE/	8gg\L
.	8aa\
8r	8bb-\J
=42	=42
4AA/ 4E/ 4Fn/	8cccn\L
.	8eee\
8r	8gggn\J
4EE/	8fffn\L
.	8aaa\
8r	8ccccn\J
=43	=43
4AA/ 4E/ 4F#/	8fffn\L
.	8eee\
8r	8bb\J
4EE/	8bbb\L
.	8bb\
8r	8bbb\J
=44	=44
4AA/ 4E/ 4F#/	8fffn\L
.	8eee\
8r	8bb\J
4BBB/	8bbb\L
.	8bb\
8r	8bbb\J
=45	=45
4EEE/	8fffn\L
.	8eee\
8EE/	8bb\J
4BB/	8bbb\L
.	8bb\
8E\	8bbb\J
=46	=46
!!linebreak:original
4Fn\	8fffn\L
.	8eee\
8cn\	8bb\J
4Gn\	8bbb\L
.	8bb\
8gn\	8bbb\J
=47	=47
4fn\	8fffn\L
.	8eee\
8e\	8bb\J
4gn\	8bbb\L
.	8bb\
8ccn\	8bbb\J
=48	=48
4fn\	8fffn\L
.	8eee\
8e\	8bb\J
4gn\	8bbb\L
.	8bb\
8ccn\	8bbb\J
=49	=49
4dd#\	8fffn\L
.	8eee\
8r	8bb\J
4gg#\	8bbb\L
.	8bb\
8r	8bbb\J
=50	=50
4eee-\	8fffn\L
.	8eee\
8r	8bb\J
4a-\ 4cc#\ 4ee-\	8cccn\L 8ccccn\
.	8aaa-\
8r	8eee-\J
=51	=51
!!pagebreak:original
8FFn/L	8cccn\L
8GGn/	8aa-\
8AA/J	8ee-\J
4AA#/	4ccn\
8BBB/ 8BB/	8b\ 8bb\
=52	=52
4GGG#/ 4GG#/	4ee\ 4eee\
8r	8r
4.EE/ 4.BB/ 4.G#/	4.e/ 4.g#/ 4.b#/ 4.ee/
==	==
*-	*-
